FINK
CUT[TRINKEN SANG ANAKREON]
REG[Europa, Mitteleuropa, Deutschland]
KEY[F0557  16  G 2/4]
MEL[  1_.-5-5_-5_  -6_-6_-5__
    -5_.-5-6_-7_  1__0__
    2_.32_.3  2_3_2__
    2_2_3_4#_  5__0__
    -5_-5_3_.1  1_-6_-6__
    -5_.-5-6_-7_  1__0__
    -5_-5_3_.1  1_-6_-6__
    -5_.-5-6_-7_  1__0__
    2__-5__  3__1__
    4_.34_6_  5__
    3_.5  4__2_.4  3__
    1_.3  2__-5_.-5  1__0__ //] >>
FCT[Studenten -, Trink - Lied]
